X:17475
T:Tim Moloney's
R:reel
Z:id:hn-reel-616
M:C|
K:G
DG~G2 BddB|dedB gedB|G2BG dGBd|c2Bc AGEG|
DG~G2 BddB|dedB d2gf|efed (3Bcd ef|gedB AGEG:|
|:dg~g2 bgge|dBBA B2ef|g2bg abge|d2BG AGEG|
dg~g2 bgge|dBBA B2gf|efed (3Bcd ef|gedB AGEG:|
